X: 334
T: Earl St Vincents fancy
%R: reel
Z: 2014 John Chambers <jc:trillian.mit.edu>
B: Preston "Twenty four Country Dances for the Year 1798" p.147 #2
F: http://www.vwml.org/browse/browse-collections-dance-tune-books/browse-prestons1798# 2014-8-10
M: C|
L: 1/8
K: A
|:\
e>fec B>cAE | F>EFA B/B/B Bc |\
e>fec A>cAE | F>AEC A,/A,/A, A,2 :: a>bae a>bae |
fefa b/b/b b2 |[1 abae faBa | BABc A/A/A A2 :|\
[2 aefa efce | BABc A/A/A A2 |]
% - - - - - - - - - - - - - - - - - - - - - - - - -
%%begintext align
%% Follow your Partner into the 2d Cu.s place .|
%% Follow back again :| Lead down the middle
%% foot it :|. Le Poussette .|:
%%endtext
% - - - - - - - - - - - - - - - - - - - - - - - - -

%%sep 1 1 500
%%sep 1 1 500
